!!!OTL: Maedel mit dem rothen Mieder.
!!!OTL-incipit:MAEDEL MIT DEM ROTHEN MIEDER
!!!COM: Volksweise
!!!ARE: Europa, Mitteleuropa, Deutschland
!!!SCT: F0161
!!!TXL: @@DE
!!!YEM: Copyright 1995, estate of Helmut Schaffrath.
**kern	**text
*ICvox	*
*clefG2	*
*M2/4	*
*k[f#]	*
*G:	*
=1	=1
!LO:TX:a:t=Munter.	!
{8g	Mä-
8b/	-del
8b/	mit
8dd	dem
=2	=2
8dd	ro-
8cc	-then
8cc	Mieder,
8b}	.
=3	=3
{8a	hop-
8a	-ſa-
4a	-ſa,
=4	=4
16g	tralle-
16b/	.
16dd	-ral-
16b/	-le
4g}	ra!
=5	=5
{8g	Gib
8b/	mir
8b/	meinen
8dd	.
=6	=6
8dd	Thaler
8cc	.
8cc	wieder,
8b}	.
=7	=7
{8a	hop-
8a	-ſa-
4a	-ſa,
=8	=8
16g	tralle-
16b/	.
16dd	-ral-
16b/	-le-
4g}	-ra!
=9	=9
{8g	Gibſt
8ee	du
8ee	mir
8ee	den
=10	=10
8ee	Thaler
8dd	.
4dd}	nicht,
=11	=11
{8dd	biſt
8cc	du
8cc	auch
8cc	mein
=12	=12
8cc	Mädel
8b	.
4b}	nicht!
=13	=13
{8bq	.
8a	Hopſa-
8a	.
4a	-ſa,
=14	=14
16g	tralle-
16b/	.
16dd	-ral-
16b/	-le-
8g	-ra!
8b}	und
=15	=15
{8bq	.
8a	hop-
8a	-ſa-
4a	-ſa,
=16	=16
16g	tralle-
16b/	.
16dd	-ralle-
16b/	.
4g}	-ra!
=17	=17
{8g	Gibſt
8ee	du
8ee	mir
8ee	den
=18	=18
8ee	Thaler
8dd	.
4dd}	nicht,
=19	=19
{8dd	biſt
8cc	du
8cc	auch
8cc	mein
=20	=20
8cc	Mädel
8b	.
4b}	nicht!
=21	=21
{8bq	.
8a	Hopſa-
8a	.
4a	-ſa,
=22	=22
16g	tralle-
16b/	.
16dd	-ral-
16b/	-le-
8g	-ra!
8b}	und
=23	=23
{8bq	.
8a	hop-
8a	-ſa-
4a	-ſa,
=24	=24
16g	tralle-
16b/	.
16dd	-ralle-
16b/	.
4g}	-ra!
==	==
!!!AGN: Liebes - Lied
!!!ONB: ESAC (Essen Associative Code) Database: FINK
!!!AMT: simple duple
!!!AIN: vox
!!!EED: Helmut Schaffrath
!!!EEV: 1.0
!!!GTL: Volkslieder
!!Text: Volkslied
!!!source: Musikalischer Hausschatz der Deutschen. Eine Sammlung von über 1000 Liedern und Gesängen mit Singstimmen und Klavierbegleitung. Leipzig, Litterarisches Verlags-Haus.
!!!page: 95
!!!URL-scan: https://www.digitale-sammlungen.de/en/view/bsb11144622?page=102,103
!!!ENC: Anna Maria Matuszewska
!!!EEV: 2024/07/26
*-	*-